packages/tokens/icons/implementation/size16Px.svg

<svg viewBox="0 0 18 16" fill="none" xmlns="http://www.w3.org/2000/svg" width="1em" height="1em"><path d="M5.91045 3.5L3.5 3.5C2.39543 3.5 1.5 4.39543 1.5 5.5L1.5 9.5C1.5 10.6046 2.39543 11.5 3.5 11.5H12.5C13.6046 11.5 14.5 10.6046 14.5 9.5V9" stroke="currentColor" stroke-linecap="round" stroke-linejoin="round"/><path d="M5.5 14.5H11.5" stroke="currentColor" stroke-linecap="round"/><path d="M8.5 14V12" stroke="currentColor"/><path d="M13.1894 6.26161L13.6606 6.44043L13.1894 6.26161C13.1695 6.30566 13.1485 6.34913 13.1263 6.39198L13.5859 6.59503L13.1263 6.39199C12.9356 6.76051 12.9411 7.25101 13.2838 7.59368C13.2981 7.60803 13.2971 7.63104 13.2815 7.64508L12.9706 7.92516C12.955 7.9392 12.9307 7.93897 12.9163 7.92461C12.5736 7.58194 12.0577 7.55119 11.6599 7.71271C11.6136 7.73152 11.5667 7.74919 11.5193 7.7657C11.1138 7.90671 10.7513 8.26784 10.7303 8.7474C10.7294 8.76746 10.7115 8.78355 10.6903 8.78334L10.2681 8.77912C10.247 8.77891 10.2305 8.76245 10.2314 8.74237C10.2525 8.26282 9.92201 7.89477 9.52932 7.74578C9.48337 7.72834 9.43807 7.70975 9.39345 7.69003C9.01017 7.52067 8.49192 7.54106 8.11931 7.87667C8.10366 7.89077 8.07929 7.89053 8.06487 7.87612L7.77905 7.59035C7.7646 7.5759 7.76562 7.55273 7.78132 7.5386C8.15393 7.203 8.20247 6.71296 8.0443 6.34089C8.02596 6.29774 8.00883 6.25401 7.99294 6.20973L7.50639 6.379L7.99294 6.20972C7.8566 5.82981 7.48651 5.49747 6.98076 5.49242C6.95954 5.49221 6.94306 5.47573 6.94395 5.45562L6.96153 5.05535C6.96242 5.03529 6.98028 5.01919 7.00145 5.0194C7.50722 5.02445 7.90618 4.69976 8.07572 4.32286C8.09556 4.27876 8.1166 4.23524 8.13881 4.19233C8.32955 3.82375 8.32411 3.33317 7.98131 2.99044C7.96689 2.97601 7.96792 2.95289 7.98358 2.93878L8.29427 2.65895C8.30994 2.64484 8.33434 2.64507 8.34877 2.6595C8.69156 3.00223 9.20754 3.03298 9.60536 2.87145C9.65166 2.85265 9.69855 2.83499 9.74598 2.81849C10.1514 2.67749 10.5139 2.31637 10.535 1.83684C10.5358 1.81682 10.5537 1.80075 10.5748 1.80096L10.9971 1.80517C11.0183 1.80539 11.0347 1.82182 11.0338 1.84188C11.0128 2.3214 11.3432 2.68943 11.7359 2.83842C11.7817 2.85583 11.827 2.87439 11.8715 2.89406C12.2548 3.06337 12.773 3.04295 13.1455 2.70737C13.1612 2.69328 13.1856 2.69352 13.2 2.70792L13.4859 2.99381C13.5003 3.0082 13.4993 3.03127 13.4836 3.04534C13.1111 3.38092 13.0625 3.87094 13.2208 4.24298C13.2392 4.28634 13.2564 4.3303 13.2724 4.37481L13.759 4.20561L13.2724 4.37481C13.4087 4.75474 13.7787 5.0871 14.2845 5.09215C14.3056 5.09236 14.322 5.10878 14.3211 5.12881L14.3036 5.52919C14.3027 5.54926 14.2848 5.56537 14.2636 5.56516C13.7579 5.56011 13.3589 5.88476 13.1894 6.26161Z" stroke="currentColor"/></svg>

<svg xmlns="http://www.w3.org/2000/svg" fill="none" viewBox="0 0 18 16" width="1em" height="1em"><path stroke="currentColor" stroke-linecap="round" stroke-linejoin="round" d="M5.91 3.5H3.5a2 2 0 0 0-2 2v4a2 2 0 0 0 2 2h9a2 2 0 0 0 2-2V9"/><path stroke="currentColor" stroke-linecap="round" d="M5.5 14.5h6"/><path stroke="currentColor" d="M8.5 14v-2m4.69-5.738.47.178-.47-.178c-.02.044-.041.087-.064.13l.46.203-.46-.203c-.19.369-.185.859.158 1.202a.035.035 0 0 1-.003.051l-.31.28a.04.04 0 0 1-.055 0c-.342-.343-.858-.374-1.256-.212a2.963 2.963 0 0 1-.14.053c-.406.14-.769.502-.79.981 0 .02-.019.037-.04.036l-.422-.004a.036.036 0 0 1-.037-.037c.021-.48-.309-.847-.702-.996a2.75 2.75 0 0 1-.136-.056c-.383-.17-.901-.149-1.274.187a.04.04 0 0 1-.054 0l-.286-.287a.035.035 0 0 1 .002-.051 1.05 1.05 0 0 0 .263-1.198 2.456 2.456 0 0 1-.051-.131l-.487.169.487-.17a1.083 1.083 0 0 0-1.012-.717c-.021 0-.038-.016-.037-.036l.018-.4c0-.02.018-.037.04-.037a1.18 1.18 0 0 0 1.074-.696c.02-.044.04-.088.063-.13.19-.37.185-.86-.158-1.203a.035.035 0 0 1 .003-.051l.31-.28a.04.04 0 0 1 .055 0c.343.343.859.374 1.256.212l.141-.053c.405-.14.768-.502.789-.981 0-.02.019-.036.04-.036l.422.004c.021 0 .038.017.037.037-.021.48.31.847.702.996.046.018.091.036.135.056.384.17.902.149 1.274-.187a.04.04 0 0 1 .055 0l.286.287a.035.035 0 0 1-.002.051 1.05 1.05 0 0 0-.263 1.198c.018.043.035.087.051.132l.487-.17-.487.17c.137.38.507.712 1.012.717.022 0 .038.017.037.037l-.017.4c-.001.02-.02.036-.04.036a1.178 1.178 0 0 0-1.075.697Z"/></svg>
